src/2-landmarks/subway-interior--door-open.svg

<svg width="1300" height="1000" fill="none" xmlns="http://www.w3.org/2000/svg"><g clip-path="url(#a)" fill="#000"><path fill-rule="evenodd" clip-rule="evenodd" d="M950 0h7v78c0 8.284 6.716 15 15 15h328v7h-35.12l19.47 34.545c1.88 3.333-.53 7.455-4.36 7.455h-46.98c-3.83 0-6.24-4.122-4.36-7.455L1248.12 100h-95.24l19.47 34.545c1.88 3.333-.53 7.455-4.36 7.455h-46.98c-3.83 0-6.24-4.122-4.36-7.455L1136.12 100h-95.24l19.47 34.545c1.88 3.333-.53 7.455-4.36 7.455h-46.98c-3.83 0-6.24-4.122-4.36-7.455L1024.12 100H970c-11.046 0-20-8.954-20-20V0Zm82.01 100h.98l20.71 35h-42.4l20.71-35Zm112 0-20.71 35h42.4l-20.71-35h-.98Zm112 0h.98l20.71 35h-42.4l20.71-35ZM400 900h-80V720h10c11.046 0 20-8.954 20-20v-20c0-11.046-8.954-20-20-20h-10v-10c0-11.046-8.954-20-20-20H0v7h298c8.284 0 15 6.716 15 15v8H70c-6.85 0-12.895 3.444-16.5 8.694C49.895 663.444 43.85 660 37 660H0v7h35c8.284 0 15 6.716 15 15v16c0 8.284-6.716 15-15 15H0v7h37c6.85 0 12.895-3.444 16.5-8.694C57.105 716.556 63.15 720 70 720h243v180H0v100h1300V900H987V720h243c6.85 0 12.9-3.444 16.5-8.694 3.6 5.25 9.65 8.694 16.5 8.694h37v-7h-35c-8.28 0-15-6.716-15-15v-16c0-8.284 6.72-15 15-15h35v-7h-37c-6.85 0-12.9 3.444-16.5 8.694-3.6-5.25-9.65-8.694-16.5-8.694H987v-8c0-8.284 6.716-15 15-15h298v-7h-300c-11.046 0-20 8.954-20 20v10h-10c-11.046 0-20 8.954-20 20v20c0 11.046 8.954 20 20 20h10v180h-80V220c0-11.046-8.954-20-20-20H420c-11.046 0-20 8.954-20 20v680Zm7-339v282h91V207h-76c-8.284 0-15 6.716-15 15v8h51c11.046 0 20 8.954 20 20v291c0 11.046-8.954 20-20 20h-51Zm486 282V561h-53c-11.046 0-20-8.954-20-20V250c0-11.046 8.954-20 20-20h53v-8c0-8.284-6.716-15-15-15h-78v636h93ZM793 207H505v693h288V207Zm7 643h93v50h-93v-50Zm-302 0h-91v50h91v-50Zm745-152v-16c0-8.284-6.72-15-15-15H972c-8.284 0-15 6.716-15 15v16c0 8.284 6.716 15 15 15h256c8.28 0 15-6.716 15-15ZM72 667c-8.284 0-15 6.716-15 15v16c0 8.284 6.716 15 15 15h256c8.284 0 15-6.716 15-15v-16c0-8.284-6.716-15-15-15H72Zm821-430v317h-51c-8.284 0-15-6.716-15-15V252c0-8.284 6.716-15 15-15h51ZM407 554h49c8.284 0 15-6.716 15-15V252c0-8.284-6.716-15-15-15h-49v317Z"/><path d="M0 560v-7h328c8.284 0 15-6.716 15-15V252c0-8.284-6.716-15-15-15H0v-7h330c11.046 0 20 8.954 20 20v290c0 11.046-8.954 20-20 20H0Zm1300-7v7H970c-11.046 0-20-8.954-20-20V250c0-11.046 8.954-20 20-20h330v7H972c-8.284 0-15 6.716-15 15v286c0 8.284 6.716 15 15 15h328Z"/><path fill-rule="evenodd" clip-rule="evenodd" d="M343 0h7v80c0 11.046-8.954 20-20 20h-54.118l19.467 34.545c1.878 3.333-.53 7.455-4.356 7.455h-46.986c-3.826 0-6.234-4.122-4.356-7.455L259.118 100h-95.236l19.467 34.545c1.878 3.333-.53 7.455-4.356 7.455h-46.986c-3.826 0-6.234-4.122-4.356-7.455L147.118 100H51.882l19.467 34.545c1.878 3.333-.53 7.455-4.356 7.455H20.007c-3.826 0-6.234-4.122-4.356-7.455L35.118 100H0v-7h328c8.284 0 15-6.716 15-15V0ZM43.007 100 22.3 135h42.4l-20.706-35h-.986Zm112 0h.986l20.706 35h-42.398l20.706-35Zm112 0-20.706 35h42.398l-20.706-35h-.986Z"/></g><defs><clipPath id="a"><path fill="#fff" d="M0 0h1300v1000H0z"/></clipPath></defs></svg>

<svg width="1300" height="1000" viewBox="0 0 1300 1000" fill="none" xmlns="http://www.w3.org/2000/svg">
<g clip-path="url(#clip0_179_1027)">
<path fill-rule="evenodd" clip-rule="evenodd" d="M950 0H957V78C957 86.2843 963.716 93 972 93H1300V100H1264.88L1284.35 134.545C1286.23 137.878 1283.82 142 1279.99 142H1233.01C1229.18 142 1226.77 137.878 1228.65 134.545L1248.12 100H1152.88L1172.35 134.545C1174.23 137.878 1171.82 142 1167.99 142H1121.01C1117.18 142 1114.77 137.878 1116.65 134.545L1136.12 100H1040.88L1060.35 134.545C1062.23 137.878 1059.82 142 1055.99 142H1009.01C1005.18 142 1002.77 137.878 1004.65 134.545L1024.12 100H970C958.954 100 950 91.0457 950 80V0ZM1032.01 100H1032.99L1053.7 135H1011.3L1032.01 100ZM1144.01 100L1123.3 135H1165.7L1144.99 100H1144.01ZM1256.01 100H1256.99L1277.7 135H1235.3L1256.01 100Z" fill="black"/>
<path fill-rule="evenodd" clip-rule="evenodd" d="M400 900H320V720H330C341.046 720 350 711.046 350 700V680C350 668.954 341.046 660 330 660H320V650C320 638.954 311.046 630 300 630H0V637H298C306.284 637 313 643.716 313 652V660H70C63.1501 660 57.1046 663.444 53.5 668.694C49.8954 663.444 43.8499 660 37 660H0V667H35C43.2843 667 50 673.716 50 682V698C50 706.284 43.2843 713 35 713H0V720H37C43.8499 720 49.8954 716.556 53.5 711.306C57.1046 716.556 63.1501 720 70 720H313V900H0V1000H1300V900H987V720H1230C1236.85 720 1242.9 716.556 1246.5 711.306C1250.1 716.556 1256.15 720 1263 720H1300V713H1265C1256.72 713 1250 706.284 1250 698V682C1250 673.716 1256.72 667 1265 667H1300V660H1263C1256.15 660 1250.1 663.444 1246.5 668.694C1242.9 663.444 1236.85 660 1230 660H987V652C987 643.716 993.716 637 1002 637H1300V630H1000C988.954 630 980 638.954 980 650V660H970C958.954 660 950 668.954 950 680V700C950 711.046 958.954 720 970 720H980V900H900V220C900 208.954 891.046 200 880 200H420C408.954 200 400 208.954 400 220V900ZM407 561V843H498V207H422C413.716 207 407 213.716 407 222V230H458C469.046 230 478 238.954 478 250V541C478 552.046 469.046 561 458 561H407ZM893 843V561H840C828.954 561 820 552.046 820 541V250C820 238.954 828.954 230 840 230H893V222C893 213.716 886.284 207 878 207H800V843H893ZM793 207H505V900H793V207ZM800 850H893V900H800V850ZM498 850H407V900H498V850ZM1243 698V682C1243 673.716 1236.28 667 1228 667H972C963.716 667 957 673.716 957 682V698C957 706.284 963.716 713 972 713H1228C1236.28 713 1243 706.284 1243 698ZM72 667C63.7157 667 57 673.716 57 682V698C57 706.284 63.7157 713 72 713H328C336.284 713 343 706.284 343 698V682C343 673.716 336.284 667 328 667H72ZM893 237V554H842C833.716 554 827 547.284 827 539V252C827 243.716 833.716 237 842 237H893ZM407 554H456C464.284 554 471 547.284 471 539V252C471 243.716 464.284 237 456 237H407V554Z" fill="black"/>
<path d="M0 560V553H328C336.284 553 343 546.284 343 538V252C343 243.716 336.284 237 328 237H0V230H330C341.046 230 350 238.954 350 250V540C350 551.046 341.046 560 330 560H0Z" fill="black"/>
<path d="M1300 553V560H970C958.954 560 950 551.046 950 540V250C950 238.954 958.954 230 970 230H1300V237H972C963.716 237 957 243.716 957 252V538C957 546.284 963.716 553 972 553H1300Z" fill="black"/>
<path fill-rule="evenodd" clip-rule="evenodd" d="M343 0H350V80C350 91.0457 341.046 100 330 100H275.882L295.349 134.545C297.227 137.878 294.819 142 290.993 142H244.007C240.181 142 237.773 137.878 239.651 134.545L259.118 100H163.882L183.349 134.545C185.227 137.878 182.819 142 178.993 142H132.007C128.181 142 125.773 137.878 127.651 134.545L147.118 100H51.8821L71.3487 134.545C73.2269 137.878 70.8185 142 66.9927 142H20.007C16.1812 142 13.7728 137.878 15.651 134.545L35.1176 100H0V93H328C336.284 93 343 86.2843 343 78V0ZM43.0069 100L22.3012 135H64.6988L43.9931 100H43.0069ZM155.007 100H155.993L176.699 135H134.301L155.007 100ZM267.007 100L246.301 135H288.699L267.993 100H267.007Z" fill="black"/>
</g>
<defs>
<clipPath id="clip0_179_1027">
<rect width="1300" height="1000" fill="white"/>
</clipPath>
</defs>
</svg>
